src/assets/skills/nuxt.svg

<svg width="479" height="357" viewBox="0 0 479 357" fill="none" xmlns="http://www.w3.org/2000/svg">
<g clip-path="url(#clip0)">
<path d="M273 98.3L256.5 126.7L200.5 29.6L28.4 327.7H144.9C144.9 335.232 147.892 342.456 153.218 347.782C158.544 353.108 165.768 356.1 173.3 356.1H28.3C23.3228 356.083 18.4374 354.759 14.1333 352.26C9.82916 349.76 6.25748 346.173 3.7761 341.859C1.29473 337.544 -0.00918254 332.653 -0.00499483 327.676C-0.000807118 322.699 1.31134 317.81 3.79997 313.5L176 15.4C178.492 11.0804 182.077 7.49307 186.396 4.99888C190.714 2.50469 195.613 1.19156 200.6 1.19156C205.587 1.19156 210.486 2.50469 214.804 4.99888C219.123 7.49307 222.708 11.0804 225.2 15.4L273 98.4V98.3Z" fill="#00C58E"/>
<path d="M397.2 313.5L289.3 126.7L273 98.3L256.6 126.7L148.8 313.5C146.307 317.818 144.995 322.716 144.995 327.701C144.995 332.687 146.308 337.585 148.801 341.902C151.294 346.22 154.88 349.805 159.198 352.297C163.516 354.789 168.414 356.101 173.4 356.1H372.7C377.677 356.083 382.563 354.759 386.867 352.26C391.171 349.76 394.742 346.173 397.224 341.859C399.705 337.544 401.009 332.653 401.005 327.676C401.001 322.699 399.689 317.81 397.2 313.5ZM173.2 327.7L273 155.1L372.7 327.7H173.3H173.2Z" fill="#2F495E"/>
<path d="M474.3 342C471.794 346.299 468.203 349.865 463.886 352.34C459.568 354.814 454.676 356.111 449.7 356.1H372.6C380.115 356.074 387.313 353.07 392.617 347.747C397.922 342.423 400.9 335.215 400.9 327.7H449.6L311.5 88.3L289.3 126.7L273 98.3L287 74.2C289.492 69.8804 293.077 66.2931 297.396 63.7989C301.714 61.3047 306.613 59.9915 311.6 59.9915C316.587 59.9915 321.486 61.3047 325.804 63.7989C330.123 66.2931 333.708 69.8804 336.2 74.2L474.4 313.5C479.4 322.3 479.4 333.2 474.4 341.9L474.3 342Z" fill="#108775"/>
</g>
<defs>
<clipPath id="clip0">
<rect width="479" height="357" fill="white"/>
</clipPath>
</defs>
</svg>

<svg width="479" height="357" fill="none" xmlns="http://www.w3.org/2000/svg"><g clip-path="url(#a)"><path d="m273 98.3-16.5 28.4-56-97.1L28.4 327.7h116.5a28.4 28.4 0 0 0 28.4 28.4h-145a28.4 28.4 0 0 1-24.5-42.6L176 15.4a28.4 28.4 0 0 1 49.2 0l47.8 83v-.1Z" fill="#00C58E"/><path d="M397.2 313.5 289.3 126.7 273 98.3l-16.4 28.4-107.8 186.8a28.4 28.4 0 0 0 24.6 42.6h199.3a28.4 28.4 0 0 0 24.5-42.6Zm-224 14.2L273 155.1l99.7 172.6H173.2Z" fill="#2F495E"/><path d="M474.3 342a28.4 28.4 0 0 1-24.6 14.1h-77.1a28.4 28.4 0 0 0 28.3-28.4h48.7L311.5 88.3l-22.2 38.4L273 98.3l14-24.1a28.4 28.4 0 0 1 49.2 0l138.2 239.3c5 8.8 5 19.7 0 28.4l-.1.1Z" fill="#108775"/></g><defs><clipPath id="a"><path fill="#fff" d="M0 0h479v357H0z"/></clipPath></defs></svg>
